!!!id: 18xx:2874
!!!COM: Moniuszko, Stanisław
!!!OTL: Offertorium
!!!PDT:
!!!SMS-siglum: PL-Wtm
!!!SMS-shelfmark: R 281/M
!!!NIFC-rismID: 1001098781
!!!URL-scan: http://repozytorium.nifc.pl/skany/pl-wtm-nut--r281m
!!!ONB-nifc:
!!!SMS-variant:
!!!SMS-altvar:
!!!OMC: Moderato aſsai.
**kern	**kern	**dynam	**kern	**dynam	**kern	**dynam	**kern	**dynam	**kern	**dynam
*part5	*part5	*part5	*part4	*part4	*part3	*part3	*part2	*part2	*part1	*part1
*staff6	*staff5	*	*staff4	*	*staff3	*	*staff2	*	*staff1	*
*I"Organy	*I"Organy	*	*I"Vceli e CB.	*	*I"Vla	*	*I"V. 2.	*	*I"V. I.	*
*clefF4	*clefG2	*	*clefF4	*	*clefC3	*	*clefG2	*	*clefG2	*
*k[b-]	*k[b-]	*	*k[b-]	*	*k[b-]	*	*k[b-]	*	*k[b-]	*
*M4/4	*M4/4	*	*M4/4	*	*M4/4	*	*M4/4	*	*M4/4	*
*met(c)	*met(c)	*	*met(c)	*	*met(c)	*	*met(c)	*	*met(c)	*
*all\right	*all\right	*	*all\right	*	*all\right	*	*all\right	*	*all\right	*
=1	=1	=1	=1	=1	=1	=1	=1	=1	=1	=1
!	!	!	!	!	!	!	!	!LO:DY:b:rj	!	!LO:DY:b:rj
1r	1r	.	1r	.	1r	.	2d/	p	2d/	p
.	.	.	.	.	.	.	4e/	.	4e/	.
.	.	.	.	.	.	.	8f/L	.	(8f/L	.
.	.	.	.	.	.	.	8g/J	.	8g/J)	.
=2	=2	=2	=2	=2	=2	=2	=2	=2	=2	=2
1r	1r	.	1r	.	2r	.	[2a/	.	2.a/	.
.	.	.	.	.	4r	.	8a/]	.	.	.
.	.	.	.	.	.	.	8r	.	.	.
.	.	.	.	.	4f\	.	4r	.	4a/	.
=3	=3	=3	=3	=3	=3	=3	=3	=3	=3	=3
*	*	*	*	*	*2\right	*	*	*	*	*
1r	1r	.	1r	.	[>2f\	.	1r	.	[2a/	.
.	.	.	.	.	8f\L]	.	.	.	8a/L]	.
.	.	.	.	.	8e\	.	.	.	8g/	.
.	.	.	.	.	8d\	.	.	.	8f/	.
.	.	.	.	.	8e\J	.	.	.	8g/J	.
=4	=4	=4	=4	=4	=4	=4	=4	=4	=4	=4
1r	1r	.	1r	.	4.f\	.	1r	.	4.a/	.
.	.	.	.	.	8d\	.	.	.	8f/	.
.	.	.	.	.	8f\	.	.	.	8a/	.
.	.	.	.	.	8r	<	.	.	8r	<
.	.	.	.	.	8f\L	.	.	.	8dd\L	.
.	.	.	.	.	8a\J	[[	.	.	8ee\J	[[
=5	=5	=5	=5	=5	=5	=5	=5	=5	=5	=5
1r	1r	.	1r	.	4.dd\	sf >	1r	.	4.ff\	sf >
.	.	.	.	.	8d\	.	.	.	8dd\	.
.	.	.	.	.	4.f\	.	.	.	4.a/	.
.	.	.	.	.	8e\	]]	.	.	8g/	]]
=6	=6	=6	=6	=6	=6	=6	=6	=6	=6	=6
*^	*^	*	*	*	*	*	*	*	*	*
!	!	!	!	!	!	!	!	!LO:DY:b:rj	!	!	!	!LO:DY:b:rj
2r	2.ryy	2r	2.ryy	.	1r	.	2e\	p	1r	.	2g/	p
4r	.	4r	.	.	.	.	4d\	.	.	.	4f/	.
4A/	8.D\L	8a/L	4f\	.	.	.	4r	.	.	.	4r	.
.	.	8dd/J	.	.	.	.	.	.	.	.	.	.
.	16E\Jk	.	.	.	.	.	.	.	.	.	.	.
!!LO:LB:g=original
=7	=7	=7	=7	=7	=7	=7	=7	=7	=7	=7	=7	=7
*2\right	*	*	*	*	*	*	*	*	*	*	*	*
2F\ 2A	2.ryy	2f/ 2cc	2.ryy	.	1r	.	1r	.	1r	.	1r	.
8F\	.	8f/	.	.	.	.	.	.	.	.	.	.
8r	.	8r	.	.	.	.	.	.	.	.	.	.
4F/	8.BB-\L	8f/L	4d\	.	.	.	.	.	.	.	.	.
.	.	8b-/J	.	.	.	.	.	.	.	.	.	.
.	16C\Jk	.	.	.	.	.	.	.	.	.	.	.
=8	=8	=8	=8	=8	=8	=8	=8	=8	=8	=8	=8	=8
*	*	*2\right	*	*	*	*	*	*	*	*	*	*
2F/	2D\	2a/	2d\	.	1r	.	1r	.	1r	.	2r	.
2D/	4D\	2d/	2ryy	.	.	.	.	.	.	.	4r	.
.	4C\	.	.	.	.	.	.	.	.	.	4dd\	.
*v	*v	*	*	*	*	*	*	*	*	*	*	*
*	*v	*v	*	*	*	*	*	*	*	*	*
=9	=9	=9	=9	=9	=9	=9	=9	=9	=9	=9
1BB- 1D	1d	.	1r	.	1r	.	1r	.	(4.dd^\	.
.	.	.	.	.	.	.	.	.	16cc\LL	.
.	.	.	.	.	.	.	.	.	16b-\JJ	.
.	.	.	.	.	.	.	.	.	8a\L	.
.	.	.	.	.	.	.	.	.	8g\	.
.	.	.	.	.	.	.	.	.	8f\	.
.	.	.	.	.	.	.	.	.	8g\J)	.
=10	=10	=10	=10	=10	=10	=10	=10	=10	=10	=10
[2AA/	[2A/ [2a	.	1r	.	2r	.	2r	.	[2a/	.
8AA/]	8A/] 8a]	.	.	.	4r	.	4r	.	8a/]	.
8r	8r	.	.	.	.	.	.	.	8r	.
!	!	!LO:DY:b:rj	!	!	!	!LO:DY:b:rj	!	!LO:DY:b:rj	!	!LO:DY:b:rj
4r	(8a/L	f	.	.	(8A/L	f	(8a/L	f	(8a/L	f
.	8c/J) 8cc	.	.	.	8c/J)	.	8cc/J)	.	8cc/J)	.
=11	=11	=11	=11	=11	=11	=11	=11	=11	=11	=11
*	*^	*	*^	*	*^	*	*	*	*^	*
!	!	!	!	!LO:TX:a:t=Vcelli cB.	!	!LO:DY:b:rj	!	!	!	!	!	!	!	!
1CC 1C	[<2c/ [>2cc	2e/	.	2CC^/ 2C	[1C	f	2G^</ 2e	4C/	.	2G^/ 2g	.	2e^</ 2cc	4G/	.
.	.	.	.	.	.	.	.	2.ryy	.	.	.	.	2.ryy	.
.	8c/L] 8cc]	2f\	.	8C/L	.	.	8C/L 8G	.	.	8G/L 8f	.	8d/L 8cc	.	.
!	!LO:ACC:color=grey	!	!	!	!	!	!	!	!	!	!	!	!	!
.	8Bn/ 8bn	.	.	8C/	.	.	8C/ 8G	.	.	8G/ 8f	.	8d/ 8bn	.	.
.	8A/ 8a	.	.	8C/	.	.	8C/ 8G	.	.	8G/ 8f	.	8d/ 8a	.	.
.	8B/J 8b	.	.	8C/J	.	.	8C/J 8G	.	.	8G/J 8f	.	8d/J 8b	.	.
*	*	*	*	*	*	*	*v	*v	*	*	*	*v	*v	*
=12	=12	=12	=12	=12	=12	=12	=12	=12	=12	=12	=12	=12
*	*	*^	*	*	*	*	*	*	*	*	*	*
*	*	*	*	*	*2\right	*	*	*	*	*	*	*	*
!	!	!	!	!	!	!	!	!	!LO:HP:a	!	!LO:HP:a	!	!
2CC/ 2C	4.cc/	2c\	1e	.	2C/	2C\]	.	4.C/ 4.G	>	4.G/ 4.e	>	4.cc/	>
.	8g/	.	.	.	.	.	.	8c/	]	8g/	]	8g/	]
!	!	!	!	!LO:DY:b:rj	!	!	!	!	!	!	!	!	!
2C/	2g/	2e-X\	.	p	2ryy	2ryy	.	4c/	.	4g/	.	4g/	.
.	.	.	.	.	.	.	.	4r	.	4r	.	4re	.
*	*	*v	*v	*	*	*	*	*	*	*	*	*	*
*	*	*	*	*v	*v	*	*	*	*	*	*	*
!!LO:LB:g=original
=13	=13	=13	=13	=13	=13	=13	=13	=13	=13	=13	=13
*^	*	*	*	*	*	*	*	*	*	*	*
2.G/	2BB-\	2dd/	2d\	.	1r	.	1r	.	1r	.	1r	.
.	4E-X\	4g/	2c\	.	.	.	.	.	.	.	.	.
4F#X/	4D\	4a/	.	.	.	.	.	.	.	.	.	.
=14	=14	=14	=14	=14	=14	=14	=14	=14	=14	=14	=14	=14
2G\	2GG\	[2b-/	(2B-\	.	1r	.	2r	.	2r	.	2r	.
8G\	2ryy	8b-/]	8d\)	.	.	.	4r	.	4r	.	4r	.
8r	.	8r	4.ryy	.	.	.	.	.	.	.	.	.
!	!	!	!	!LO:DY:b:rj	!	!	!	!LO:DY:b:rj	!	!LO:DY:b:rj	!	!LO:DY:b:rj
4r	.	(8B-/L 8b-	.	f	.	.	(8B-\L	f	(8b-\L	f	(8b-X\L	f
.	.	8c/J) 8cc	.	.	.	.	8c\J)	.	8cc\J)	.	8cc\J)	.
*	*	*v	*v	*	*	*	*	*	*	*	*	*
=15	=15	=15	=15	=15	=15	=15	=15	=15	=15	=15	=15
*	*	*	*	*^	*	*	*	*	*	*	*
!	!	!	!	!	!	!LO:DY:b:rj	!	!	!	!	!	!
2F/	1BB-	[2d/ [2dd	.	2BB-^</	2BB-\	f	2F^/	.	2f^/	.	2d^/ [2dd	.
2G-X/	.	8d/L] 8dd]	.	8BB-/L	8BB-\L	.	8G-X/L	.	8e-X/L	.	8dd\L]	.
.	.	8c/ 8cc	.	8BB-/	8BB-\	.	8G-/	.	8e-/	.	8cc\	.
.	.	8B-/ 8b-	.	8BB-/	8BB-\	.	8G-/	.	8e-/	.	8b-\	.
.	.	8c/J 8cc	.	8BB-/J	8BB-\J	.	8G-/J	.	8e-/J	.	8cc\J	.
=16	=16	=16	=16	=16	=16	=16	=16	=16	=16	=16	=16	=16
*	*	*^	*	*	*	*	*	*	*	*	*	*
(2F/	2BB-\	(4.dd/	2d\	.	2BB-/	2BB-\	.	2F/	.	2d/	.	4.dd\	.
.	.	8b-/	.	.	.	.	.	.	.	.	.	8b-\	.
8B-/)	8B-\	8dd/)	8f\	.	4r	4ryy	.	8B-/	.	8f/	.	8dd\	.
8r	8ryy	8r	4.ryy	.	.	.	.	8r	.	8r	.	8r	.
!	!	!	!	!LO:DY:b:rj	!	!	!	!	!LO:DY:b:rj	!	!	!	!LO:DY:b:rj
8d/L	4B-\	8f/L 8dd	.	ff	4B-/	4B-\	ff	8d\L	ff	8f/L	ff	8dd\L	ff
8c/J	.	8g/J 8een	.	.	.	.	.	8c\J	.	8g/J	.	8een\J	.
=17	=17	=17	=17	=17	=17	=17	=17	=17	=17	=17	=17	=17	=17
!	!	!	!	!	!	!	!	!	!	!	!LO:HP:t=dimin	!	!LO:HP:t=dimin
2.c/	4.A\	4.ff/	2f\	>	4.A/	4.A\	.	4.c^\	.	4.f^</	>	4.ff^\	>
.	8F\	8cc/	.	.	8F/	8F\	.	8c\	.	8f/	.	8cc\	.
.	4En\	4.cc/	2g\	.	4E/	4E\	.	4c^\	.	4.g^</	.	4.cc^\	.
4d/	4D\	.	.	.	4D/	4D\	.	4d\	.	.	.	.	.
.	.	8b-/	.	]]	.	.	.	.	.	8g/	.	8b-\	.
=18	=18	=18	=18	=18	=18	=18	=18	=18	=18	=18	=18	=18	=18
*	*	*	*	*	*	*	*	*	*	*	*	*2\right	*
!	!	!	!	!LO:DY:b:rj	!	!	!LO:DY:b:rj	!	!	!	!	!	!LO:DY:t=p.
2ryy	2C#X\	2b-/	2e\ 2g	p	4.C#X/	4.C#\	p	2e\	p	2g/	p	2b-\	p
.	.	.	.	.	8r	8ryy	.	.	.	.	.	.	.
4A/	4A\	4a/	4a\	.	2r	2ryy	.	8A/	.	8A/	.	8a\	.
.	.	.	.	.	.	.	.	8r	.	8r	.	8r	.
4r	4ryy	4r	4ryy	.	.	.	.	4A/	.	4r	.	4a\	.
*v	*v	*	*	*	*v	*v	*	*	*	*	*	*	*
*	*v	*v	*	*	*	*	*	*	*	*	*
!!LO:PB:g=original
=19||	=19||	=19||	=19||	=19||	=19||	=19||	=19||	=19||	=19||	=19||
*ok[bnf#c#]	*ok[bnf#c#]	*	*ok[bnf#c#]	*	*ok[bnf#c#]	*	*ok[bnf#c#]	*	*ok[bnf#c#]	*
*k[f#c#]	*k[f#c#]	*	*k[f#c#]	*	*k[f#c#]	*	*k[f#c#]	*	*k[f#c#]	*
*	*	*	*^	*	*	*	*	*	*	*
!	!	!	!LO:TX:a:t=Vcelli	!	!	!	!LO:DY:b:rj	!	!LO:DY:b:rj	!	!LO:DY:b:rj
1DD	8r<	p	1DD	1r	.	1D	p	1f#	p	1a	p
.	(>8AA</L	.	.	.	.	.	.	.	.	.	.
.	8D</	.	.	.	.	.	.	.	.	.	.
.	8E</J	.	.	.	.	.	.	.	.	.	.
.	8F#</L	.	.	.	.	.	.	.	.	.	.
.	8G</ 8d<	.	.	.	.	.	.	.	.	.	.
.	8A</	.	.	.	.	.	.	.	.	.	.
.	8F#</J)	.	.	.	.	.	.	.	.	.	.
=20	=20	=20	=20	=20	=20	=20	=20	=20	=20	=20	=20
1GG	8r<	.	1GG	1r	.	4.E/	.	1e	.	1b	.
.	(<8BB</L	.	.	.	.	.	.	.	.	.	.
.	8E</	.	.	.	.	.	.	.	.	.	.
.	8F#</J	.	.	.	.	8F#/	.	.	.	.	.
.	8G</L	.	.	.	.	(8G/L	.	.	.	.	.
.	8A</	.	.	.	.	8A/	.	.	.	.	.
.	8B</	.	.	.	.	8B/	.	.	.	.	.
.	8G</J)	.	.	.	.	8G/J)	.	.	.	.	.
=21	=21	=21	=21	=21	=21	=21	=21	=21	=21	=21	=21
1EE	8r<	.	1EE	1r	.	1E	.	(2e/	.	(2g/	.
.	(<8BB</L	.	.	.	.	.	.	.	.	.	.
.	8E</	.	.	.	.	.	.	.	.	.	.
.	8B</J	.	.	.	.	.	.	.	.	.	.
.	8A</L	.	.	.	.	.	.	4f#/	.	4a/	.
.	8F#</	.	.	.	.	.	.	.	.	.	.
.	8G</	.	.	.	.	.	.	4e/)	.	4b/)	.
.	8B</J)	.	.	.	.	.	.	.	.	.	.
=22	=22	=22	=22	=22	=22	=22	=22	=22	=22	=22	=22
[<1AA	8r<	.	[1AA	1r	.	2E/	.	1e	.	1a	.
.	(>8B</L	.	.	.	.	.	.	.	.	.	.
.	8A</	.	.	.	.	.	.	.	.	.	.
.	8G</J	.	.	.	.	.	.	.	.	.	.
!	!LO:TX:t=P:problem:mixed beam	!	!	!	!	!	!	!	!	!	!
.	8E</L	.	.	.	.	(<8E/L	.	.	.	.	.
.	8A</	.	.	.	.	[>8A/J)	.	.	.	.	.
.	8B</	.	.	.	.	4A/]	.	.	.	.	.
.	8g\J)	.	.	.	.	.	.	.	.	.	.
=23	=23	=23	=23	=23	=23	=23	=23	=23	=23	=23	=23
!LO:TX:b:t=P:problem:brak przedłużenia ligatury	!	!	!	!	!LO:DY:b:rj	!	!	!	!	!	!
1AA_	8r<	.	1AA]	4AA\	p	1d	.	1g	.	1b	.
.	(>8D</L	.	.	.	.	.	.	.	.	.	.
.	8G</	.	.	4r	.	.	.	.	.	.	.
.	8B</J	.	.	.	.	.	.	.	.	.	.
.	8d\L	.	.	2r	.	.	.	.	.	.	.
.	8g\	.	.	.	.	.	.	.	.	.	.
.	8e\	.	.	.	.	.	.	.	.	.	.
.	8b\J)	.	.	.	.	.	.	.	.	.	.
!!LO:LB:g=original
=24	=24	=24	=24	=24	=24	=24	=24	=24	=24	=24	=24
1AA]	8r	.	1AA	4AA\	.	1d	.	1f#	.	1a	.
.	(>8D</L	.	.	.	.	.	.	.	.	.	.
.	8F#</	.	.	4r	.	.	.	.	.	.	.
.	8A</J	.	.	.	.	.	.	.	.	.	.
.	8d\L	.	.	2r	.	.	.	.	.	.	.
.	8a\	.	.	.	.	.	.	.	.	.	.
.	8f#\	.	.	.	.	.	.	.	.	.	.
.	8dd\J)	.	.	.	.	.	.	.	.	.	.
=25	=25	=25	=25	=25	=25	=25	=25	=25	=25	=25	=25
2DD/ 2D	(8ccn\L	.	1D	4D\	.	(4a\	.	(>2f#/	.	(4ccn\	.
.	8a\	.	.	.	.	.	.	.	.	.	.
*	*	*	*	*	*	*2\left	*	*	*	*	*
.	8f#\	.	.	2.ryy	.	2.d\)	.	.	.	4a\	.
.	8d\J	.	.	.	.	.	.	.	.	.	.
2r	8A</L	.	.	.	.	.	.	2A/)	.	4f#/	.
.	8F#</	.	.	.	.	.	.	.	.	.	.
.	8D</	.	.	.	.	.	.	.	.	4d/)	.
.	8d</J)	.	.	.	.	.	.	.	.	.	.
=26	=26	=26	=26	=26	=26	=26	=26	=26	=26	=26	=26
*	*	*	*	*	*	*2\right	*	*	*	*	*
[2GG\	8r<	.	[2GG/	4GG\	.	[2d\	.	2f#/	.	2a\	.
.	(8D</L	.	.	.	.	.	.	.	.	.	.
.	8G</	.	.	4r	.	.	.	.	.	.	.
.	8D</J	.	.	.	.	.	.	.	.	.	.
4GG\]	4d</)	.	4GG/]	2r	.	4d\]	.	4g/	.	4b-X\	.
4r	8r	.	4r	.	.	4r	.	8r	.	8r	.
.	8b-X\ 8dd	f	.	.	.	.	.	8b-X\	f	8dd\	f
*	*	*	*v	*v	*	*	*	*	*	*	*
=27	=27	=27	=27	=27	=27	=27	=27	=27	=27	=27
*ok[fncnb-]	*ok[fncnb-]	*	*ok[fncnb-]	*	*ok[fncnb-]	*	*ok[fncnb-]	*	*ok[fncnb-]	*
*k[b-]	*k[b-]	*	*k[b-]	*	*k[b-]	*	*k[b-]	*	*k[b-]	*
*	*	*	*^	*	*	*	*	*	*	*
*	*	*	*	*	*	*	*	*2\right	*	*	*
!LO:TX:b:t=a=:color=red	!	!	!	!	!	!	!	!	!	!LO:TX:a:t=a=:color=red	!
2r	(>[>2b-\ [>2dd	.	2r	1r	.	2r	.	([2b-\	.	([2dd\	.
!	!	!	!	!	!LO:DY:a:rj	!	!LO:DY:b:rj	!	!	!	!
4D\	8b-\L] 8dd]	.	2D/	.	f	4D^/	f	8b-\L]	.	8dd\L]	.
.	8a\ 8cc	.	.	.	.	.	.	8a\)	.	8cc\)	.
4d\	8g\ 8b-	.	.	.	.	4d^\	.	8g\	.	8b-\	.
.	8a\J 8cc	.	.	.	.	.	.	8a\J	.	8cc\J	.
=28	=28	=28	=28	=28	=28	=28	=28	=28	=28	=28	=28
4..B-\ 4..d	4..g/) 4..dd	.	4..B-/	1r	.	4..d\	.	4..g/	.	4..dd\	.
16A\ 16c	16d/	.	16A/	.	.	16c\	.	16d/	.	16d/	.
8.A\L 8.c	4d/	.	8.A/L	.	.	8.c\L	.	4d/	.	4d/	.
16G\Jk 16B-	.	.	16G/Jk	.	.	16B-\Jk	.	.	.	.	.
8.D\L 8.B-	4r	.	8.D/L	.	.	8.B-/L	.	4r	.	4r	.
16E\Jk 16A	.	.	16E/Jk	.	.	16A/Jk	.	.	.	.	.
!!LO:LB:g=original
=29	=29	=29	=29	=29	=29	=29	=29	=29	=29	=29	=29
8F\ 8A	1r	.	8F/	1rGG	.	8A/	.	4r	.	4r	.
8r	.	.	8r	.	.	8r	.	.	.	.	.
!	!	!	!	!	!LO:DY:rj	!	!LO:DY:b:rj	!	!LO:DY:b:rj	!	!LO:DY:b:rj
4r	.	.	8D/L	.	pp	8F'/L	pp	8d'/L	pp	8a'/L	pp
.	.	.	8C/J	.	.	8F'/J	.	8d'/J	.	8a'/J	.
2r	.	.	(<4BBn/	.	.	(4F/	.	(4d/	.	4.a/	.
.	.	.	4BB-X/)	.	.	4E/)	.	4d-X/)	.	.	.
.	.	.	.	.	.	.	.	.	.	8g/	.
=30	=30	=30	=30	=30	=30	=30	=30	=30	=30	=30	=30
1r	1r	.	4AA/	1r	.	(8F/L	.	8c/	.	8f/	.
.	.	.	.	.	.	8A/J)	.	8r	.	8r	.
.	.	.	8GG#X/L	.	.	8G#X'/L	.	8B-'/L 8dn	.	8f'/L	.
.	.	.	8GG#/J	.	.	8G#'/J	.	8B-'/J 8d	.	8f'/J	.
.	.	.	(4GGn/	.	.	(4Gn/	.	(4B-/ 4d	.	4.f/	.
.	.	.	4G/)	.	.	4B-X/)	.	4c#X/)	.	.	.
.	.	.	.	.	.	.	.	.	.	8e/	.
=31	=31	=31	=31	=31	=31	=31	=31	=31	=31	=31	=31
4r	4r	ff	4F/	1r	.	4A/	.	4d/	.	4d/	.
8r	8r	.	8r	.	.	8r	.	8r	.	8r	.
!	!	!	!	!	!LO:DY:b:rj	!	!LO:DY:b:rj	!	!LO:DY:b:rj	!	!LO:DY:b:rj
8D^/	8d^/	.	8D^</	.	f	8D^/	f	8d^/	f	8d^/	f
8F^/L	8f^/L	.	8F^</L	.	.	8F^/L	.	8f^/L	.	8f^/L	.
8A^/	8a^/	.	8A^</	.	.	8A^/	.	8A^/	.	8a^/	.
8d^/J	8dd^/	.	8d^</	.	.	8d^/	.	8d^/	.	8dd^/	.
8r	8f^/J 8ff	.	8f^</J	.	.	8f^/J	.	8f^/J	.	8ff^/J	.
=32	=32	=32	=32	=32	=32	=32	=32	=32	=32	=32	=32
*^	*^	*	*	*	*	*	*	*	*	*	*
!	!	!	!	!	!	!	!	!	!	!	!LO:DY:b:rj	!	!LO:DY:b:rj
2D/ 2F 2A 2d	1AA	2ff/	2f\ 2a 2dd	.	1AA	1AA	sff >	2d\ 2a	>	2f/ 2dd	ff >	2a\ 2ff	ff >
2E/ 2A 2c#X	.	2g/ 2a 2ee	2ryy	.	.	.	]]	2c#X\	]]	2g/ 2a	]]	2a\ 2ee	]]
*v	*v	*	*	*	*v	*v	*	*	*	*	*	*	*
*	*v	*v	*	*	*	*	*	*	*	*	*
=33	=33	=33	=33	=33	=33	=33	=33	=33	=33	=33
!LO:TX:b:t==B:color=red	!	!	!	!LO:HP:t=dimin	!	!LO:HP:t=dimin	!	!LO:HP:t=dimin	!	!LO:HP:t=dimin
1D 1A 1d	2f/ 2dd	.	1DD 1D	>	2d\	>	2f/ 2a	>	2d/ 2dd	>
.	4a/	.	.	.	4d\	.	4f/	.	4a/	.
!	!	!	!	!	!	!	!	!	!LO:TX:a:t==B:color=red	!
.	4f/	.	.	.	4A/	.	4d/	.	4f/	.
=34	=34	=34	=34	=34	=34	=34	=34	=34	=34	=34
*	*	*	*^	*	*	*	*	*	*	*
*	*	*	*	*^	*	*	*	*	*	*	*
4D/	4d/	.	4D/	4D\	1rAAA	.	4D/	.	4d/	.	4d/	.
4r	4r	.	4r	2.ryy	.	.	4r	.	4r	.	4r	.
2r	2r	.	2B-^</	.	.	.	2B-^/	.	2r	.	2r	.
*	*	*	*v	*v	*v	*	*	*	*	*	*	*
!!LO:PB:g=original
=35||	=35||	=35||	=35||	=35||	=35||	=35||	=35||	=35||	=35||	=35||
*k[b-e-]	*k[b-e-]	*	*k[b-e-]	*	*k[b-e-]	*	*k[b-e-]	*	*k[b-e-]	*
!	!	!LO:DY:b:rj	!	!	!	!	!	!	!	!
[>1B-	[<1f [<1b- 1dd	mf	1ryy	.	1ryy	.	1ryy	.	1ryy	.
=36	=36	=36	=36	=36	=36	=36	=36	=36	=36	=36
*	*^	*	*^	*	*	*	*	*	*	*
!	!	!	!	!	!	!	!	!	!	!	!LO:TX:a:t=ralent	!
2B-\_> 2d	2ff/	1f] 1b-]	.	2r	1rGG	.	2r	.	1r	.	1r	.
2B-\]	2dd/	.	.	4r	.	.	4r	.	.	.	.	.
!	!	!	!	!LO:TX:b:t=un poco ralent	!	!	!LO:TX:a:t=un poco ralent	!	!	!	!	!
.	.	.	.	(<[>4B-^</	.	.	(<[>4B-^/	.	.	.	.	.
=37	=37	=37	=37	=37	=37	=37	=37	=37	=37	=37	=37	=37
1B-	(>2dd/	2.b-\	.	8B-'</L]	1r	.	8B-'/L]	.	1r	.	1r	.
.	.	.	.	8A'</	.	.	8A'/	.	.	.	.	.
.	.	.	.	8G'</	.	.	8G'/	.	.	.	.	.
.	.	.	.	8F#X'</J)	.	.	8F#X'/J)	.	.	.	.	.
.	2ee-/)	.	.	4G/	.	.	4G/	.	.	.	.	.
.	.	4g\	.	4E-/	.	.	4E-/	.	.	.	.	.
=38	=38	=38	=38	=38	=38	=38	=38	=38	=38	=38	=38	=38
!	!	!	!	!	!	!	!	!	!	!	!LO:TX:a:t=a tempo 1mo	!
2B-\	2dd/	2f\	.	2B-/	1rC	.	2B-/	.	2r	.	2r	.
!	!	!	!	!	!	!	!	!	!	!LO:DY:b:rj	!	!LO:DY:b:rj
2r	2r	2ryy	.	2r	.	.	2r	.	2B-/	p	2G/ 2d	p
*	*v	*v	*	*	*	*	*	*	*	*	*	*
=39	=39	=39	=39	=39	=39	=39	=39	=39	=39	=39	=39
1r	1r	.	2r	1rAA	.	2r	.	1B-	.	1G 1d	.
.	.	.	4r	.	.	4ryy	.	.	.	.	.
.	.	.	4G/	.	.	4G/	.	.	.	.	.
=40	=40	=40	=40	=40	=40	=40	=40	=40	=40	=40	=40
2r	2ryy	.	2D/	2r	.	2F/	.	[2B-/	.	2f/	.
!LO:TX:a:t=un pocoralent.	!	!LO:DY:b=2	!	!	!	!	!	!	!	!	!
4r	4ryy	pp	8G/	4r	.	8G/	.	8B-/]	.	8d/	.
.	.	.	8r	.	.	8r	.	8r	.	8r	.
!	!	!	!LO:TX:b:t=un pocoralent	!	!	!LO:TX:a:t=un poco ralent	!	!LO:TX:a:t=un poco ralent	!	!LO:TX:a:t=un poco ralent	!
[4GG\	(>[>4G</	.	(>[>4G/	[>4G\	p	(>[4G/	.	[4B-/	.	[>4d/	.
=41	=41	=41	=41	=41	=41	=41	=41	=41	=41	=41	=41
8GG\L]	8G<'</L]	.	8G/L]	8G\L]	.	8G/L]	.	(8B-/L]	.	(8d/L]	.
8FF\	8F<'</	.	8F'/	8F\	.	8G'/	.	8B-'/	.	8d'/	.
8EE-\	8E-<'</	.	8E-'/	8E-\	.	8G'/	.	8B-'/	.	8d'/	.
8DD\J	8D<'</J)	.	8D/'J)	8D\J	.	8G'/J)	.	8B-'/J)	.	8d'/J)	.
!	!	!	!	!	!LO:DY:a:t=pp.	!	!LO:DY:a:t=pp.	!	!LO:DY:a:t=pp.	!	!LO:DY:a:rj
4CC\	4C</	.	4C/	4C\	pp	(4A/	pp	2A/	pp	4.e-/	pp
4DD\	4D</	.	4D/	4D\	.	4F#X/)	.	.	.	.	.
.	.	.	.	.	.	.	.	.	.	8d/	.
!!LO:LB:g=original
=42	=42	=42	=42	=42	=42	=42	=42	=42	=42	=42	=42
!	!LO:TX:b:t=a tempo 1mo	!	!	!	!	!LO:TX:b:t=a tempo 1mo	!	!	!	!LO:TX:a:t=a tempo 1mo	!
4GG/	2r	.	4GG/	4GG\	.	2G/	.	[4B-/	.	[4d/	.
4r	.	.	4r	4ryy	.	.	.	8B-/]	.	8d/]	.
.	.	.	.	.	.	.	.	8r	.	8r	.
!	!	!	!	!	!	!	!	!	!LO:DY:rj	!	!
2A-X\ 2B-	2f/ 2b- 2dd	.	[2A-X/	2r	sf	[2A-X/	sf	[2B-/ [2d	sf	[2f/	sf
=43	=43	=43	=43	=43	=43	=43	=43	=43	=43	=43	=43
1A-X 1B-	1f 1b- 1dd	.	8A-/]	1rGG	.	8A-/]	.	8B-/] 8d]	.	8f/]	.
.	.	.	8r	.	.	8r	.	8r	.	8r	.
.	.	.	4r	.	.	4r	.	4r	.	4r	.
.	.	.	2r	.	.	2r	.	2r	.	2r	.
*	*	*	*v	*v	*	*	*	*	*	*	*
=44	=44	=44	=44	=44	=44	=44	=44	=44	=44	=44
*^	*	*	*	*	*	*	*	*	*	*
[2B-/ 2d	[2A-X\	[2b-/ 2ff	.	1r	.	1r	.	1r	.	1r	.
2B-\]	2A-\]	2f/ 2b-] 2dd	.	.	.	.	.	.	.	.	.
*v	*v	*	*	*	*	*	*	*	*	*	*
=45	=45	=45	=45	=45	=45	=45	=45	=45	=45	=45
*	*^	*	*	*	*	*	*	*	*	*
*	*	*^	*	*	*	*	*	*	*	*	*
!LO:SIC:v:s=[1A-	!	!	!	!	!	!	!	!	!	!	!	!
[1A	(2dd\	2b-\	2f\	.	1r	.	1r	.	1r	.	1r	.
.	4ee-/	4cc\	2e-\	.	.	.	.	.	.	.	.	.
.	4cc/	4a-X\	.	.	.	.	.	.	.	.	.	.
*	*v	*v	*v	*	*	*	*	*	*	*	*	*
=46	=46	=46	=46	=46	=46	=46	=46	=46	=46	=46
*	*	*	*^	*	*	*	*	*	*	*
!LO:SIC:v:s=2A-\]	!	!	!	!	!	!	!	!	!	!	!
2A\]	2f\) 2b- 2dd	.	2r	2ryy	.	2r	.	2r	.	2r	.
!	!	!	!	!	!LO:DY:rj	!	!LO:DY:b:rj:t=pp.	!	!LO:DY:rj	!	!
2r	2r	.	2AA-X/	2AA-\	pp	2F/	pp	2B-/	pp	2d/	pp
=47	=47	=47	=47	=47	=47	=47	=47	=47	=47	=47	=47
1r	1r	.	(2.AA-X/	2.AA-\	.	1F	.	(>2.B-/	.	1d	.
.	.	.	4AAn/)	4AAn\	.	.	.	4An/)	.	.	.
=48	=48	=48	=48	=48	=48	=48	=48	=48	=48	=48	=48
!	!	!	!LO:TX:t=P:problem:brak początku łuku	!	!	!	!	!	!	!	!
1r	1r	.	(<1AA	1AA	.	2d\	.	2A/	.	2f/	.
.	.	.	.	.	.	[2F/	.	4r	.	[2d/	.
.	.	.	.	.	.	.	.	(4A^/	.	.	.
!!LO:LB:g=original
=49	=49	=49	=49	=49	=49	=49	=49	=49	=49	=49	=49
!	!	!	!	!	!LO:HP:a	!	!LO:HP:a	!	!LO:HP:a	!	!LO:HP:a
1r	1r	.	4BB-/)	1BB-	<	4F/]	<	4G#X/)	<	4d/]	<
.	.	.	4BB-/	.	.	4F/	.	4G#/	.	4d/	.
.	.	.	4BB-/	.	.	4F/	.	4G#/	.	4d/	.
.	.	.	4BB-/	.	.	4F/	[[	4G#/	[[	4d/	[[
=50	=50	=50	=50	=50	=50	=50	=50	=50	=50	=50	=50
!	!	!	!	!	!	!	!	!	!LO:DY:a	!	!
!	!	!	!	!	!LO:HP:a	!	!LO:HP:a	!	!LO:HP:a	!	!LO:HP:a
1r	2r	.	[2BB-/	2BB-\	[ sf >	4.D/	sf >	[2G#X/	sf >	4.f/	sf >
.	.	.	.	.	.	8En/	.	.	.	8en/	.
.	4r	.	8BB-/]	8BB-\	]	8F/	]	8G#/]	]	8d/	]
.	.	.	8r	4.ryy	.	8r	.	8r	.	8r	.
!	!	!LO:DY:rj	!	!	!	!	!	!	!	!	!
.	4d/	p	4r	.	.	4r	.	4r	.	4r	.
*	*	*	*v	*v	*	*	*	*	*	*	*
=51	=51	=51	=51	=51	=51	=51	=51	=51	=51	=51
*ok[fnb-]	*ok[fnb-]	*	*ok[fnb-]	*	*ok[fnb-]	*	*ok[fnb-]	*	*ok[fnb-]	*
*k[b-]	*k[b-]	*	*k[b-]	*	*k[b-]	*	*k[b-]	*	*k[b-]	*
*	*	*	*^	*	*	*	*	*	*	*
!	!	!	!	!	!	!	!	!	!LO:DY:a:rj	!	!LO:DY:a:rj
1r	4a/	.	8r	2rGG	.	8r	.	[2f/	p	[2a/	p
.	.	.	8AA/L	.	.	8A/L	.	.	.	.	.
.	4ryy	.	8D/	.	.	8D/	.	.	.	.	.
!	!	!	!	!	!	!LO:SIC:v:s=8F/J	!	!	!	!	!
.	.	.	8F/J	.	.	8G/J	.	.	.	.	.
.	4r	.	2A/	4r	.	2A/	.	8f/L]	.	8a/L]	.
.	.	.	.	.	.	.	.	8e/	.	8g/	.
.	4dd/	.	.	4A\	.	.	.	8d/	.	8f/	.
.	.	.	.	.	.	.	.	8e/J	.	8g/J	.
=52	=52	=52	=52	=52	=52	=52	=52	=52	=52	=52	=52
1r	1r	.	8r	1D	.	8r	.	4.f/	.	4.a/	.
.	.	.	8D/L	.	.	8D/L	.	.	.	.	.
.	.	.	8F/	.	<	8F/	.	.	.	.	.
.	.	.	8A/J	.	.	8A/J	.	8d/	.	8f/	.
.	.	.	8d/L	.	.	8d/L	.	8f/	.	8a/	.
.	.	.	8A/	.	.	8A/	<	8r	.	8r	.
.	.	.	8F/	.	[	8A/	.	8f/L	<	8dd\L	<
.	.	.	8E/J	.	.	8A/J	[[	8g/J	[[	8ee\J	[[
=53	=53	=53	=53	=53	=53	=53	=53	=53	=53	=53	=53
*	*	*	*	*	*^	*	*	*	*	*	*
!	!	!	!	!	!LO:DY:rj	!	!	!	!	!LO:DY:b:rj	!	!LO:DY:rj
[1DD [1D	4.f/ 4.a 4.ff	f	(8D/L	1D	f	sf	4A/	f	4.d/ 4.dd	f >	4.a\ 4.ff	f >
.	.	.	8AA/	.	.	.	.	.	.	.	.	.
.	.	.	8D/	.	>	.	8D/L	.	.	.	.	.
.	8f/ 8dd	.	8F/J	.	.	.	8F/J	.	8f/	.	8dd\	.
.	4.f/ 4.a	.	8A/L	.	.	.	8A/L	.	4.f/	.	4.a/	.
.	.	.	8d/	.	.	.	8d/	.	.	.	.	.
.	.	.	8A/	.	.	.	8A/	.	.	.	.	.
!	!	!LO:DY:a	!	!	!	!	!	!	!	!	!	!
.	8e/ 8g	p	8B-/J)	.	]]	.	8B-/J	.	8e/	]]	8g/	]]
*	*	*	*	*	*v	*v	*	*	*	*	*	*
=54	=54	=54	=54	=54	=54	=54	=54	=54	=54	=54	=54
*	*^	*	*	*	*	*	*	*	*	*	*
*	*	*^	*	*	*	*	*	*	*	*	*	*
!	!	!	!	!	!	!	!	!	!	!	!LO:DY:b:rj	!	!
2DD/] 2D]	2g/	(>8d\L	2B-\	.	2D/ (>2B-	[>2D\	p	2B-/	.	(8d/L	p	2g/	p
.	.	8e\	.	.	.	.	.	.	.	8e/	.	.	.
.	.	8c#X\	.	.	.	.	.	.	.	8c#X/	.	.	.
.	.	8e\J)	.	.	.	.	.	.	.	8e/J	.	.	.
4r	8A/L 8d 8f	4ryy	2ryy	.	4D/ 4A)	4D\]	.	4A/	.	8d/L	.	8f/	.
.	8e/J	.	.	.	.	.	.	.	.	8e/J	.	8r	.
!	!	!	!	!LO:DY:a	!	!	!	!	!	!	!	!	!
8.D\L	(8a/L	4f\	.	p	4ryy	4ryy	.	4r	.	8f/)	.	4r	.
.	8dd/J)	.	.	.	.	.	.	.	.	8r	.	.	.
16E\Jk	.	.	.	.	.	.	.	.	.	.	.	.	.
*	*	*v	*v	*	*	*	*	*	*	*	*	*	*
!!LO:PB:g=original
=55	=55	=55	=55	=55	=55	=55	=55	=55	=55	=55	=55	=55
*^	*	*	*	*	*	*	*	*	*	*	*	*
2.FF/ 2.F	2.ryy	2f/ 2a 2cc	2.ryy	.	8r	1rGG	.	8r	.	1r	.	1r	.
!	!	!	!	!	!	!	!LO:DY:rj	!	!LO:DY:a	!	!	!	!
.	.	.	.	.	(<8C/L	.	p	(8C/L	p	.	.	.	.
.	.	.	.	.	8F/	.	.	8F/	.	.	.	.	.
.	.	.	.	.	8G/J	.	.	8G/J	.	.	.	.	.
.	.	8f/	.	.	8A/L	.	.	8A/L	.	.	.	.	.
.	.	8r	.	.	8c/J)	.	.	8c/J)	.	.	.	.	.
4F/	8.BB-\L	(8f/L	4d\	.	4r	.	.	4r	.	.	.	.	.
.	.	8b-/J)	.	.	.	.	.	.	.	.	.	.	.
.	16C\Jk	.	.	.	.	.	.	.	.	.	.	.	.
*v	*v	*	*	*	*	*	*	*	*	*	*	*	*
*	*v	*v	*	*	*	*	*	*	*	*	*	*
=56	=56	=56	=56	=56	=56	=56	=56	=56	=56	=56	=56
2.DD/ 2.D	2d/ 2f 2a	.	8r	1rGG	.	8r	.	1r	.	1r	.
.	.	.	(<8AA/L	.	.	(8A/L	.	.	.	.	.
.	.	.	8D/	.	.	8D/	.	.	.	.	.
.	.	.	8E/J	.	.	8E/J	.	.	.	.	.
.	4d/	.	8F/L	.	.	8F/L	.	.	.	.	.
.	.	.	8A/J)	.	.	8A/J)	.	.	.	.	.
8E\L	(>8e/L	.	4r	.	.	4r	.	.	.	.	.
8F\J	8f/J	.	.	.	.	.	.	.	.	.	.
=57	=57	=57	=57	=57	=57	=57	=57	=57	=57	=57	=57
*^	*^	*	*	*	*	*	*	*	*	*	*
2G/	1BB-	(>2g/)	1d	.	8r	1BB-	p	8r	.	1r	.	1r	.
.	.	.	.	.	(<8D/L	.	.	(8D/L	.	.	.	.	.
.	.	.	.	.	8G/	.	.	8G/	.	.	.	.	.
.	.	.	.	.	8B-/J	.	.	8B-/J	.	.	.	.	.
2D/	.	8a/L	.	.	8A/L	.	.	8A/L	.	.	.	.	.
.	.	8g/	.	.	8G/	.	.	8G/	.	.	.	.	.
.	.	8f/	.	.	8F/	.	.	8F/	.	.	.	.	.
.	.	8g/J)	.	.	8G/J)	.	.	8G/J)	.	.	.	.	.
*v	*v	*	*	*	*	*	*	*	*	*	*	*	*
=58	=58	=58	=58	=58	=58	=58	=58	=58	=58	=58	=58	=58
8AA\L 8A	1a	(>8c#X\L	.	(>1AA	(>1AA	.	(>1A	<[	2r	.	2r	.
8B-X\	.	8d\	.	.	.	.	.	.	.	.	.	.
8Bn\	.	8d#X\	.	.	.	.	.	.	.	.	.	.
8c\J	.	8e\J	.	.	.	.	.	.	.	.	.	.
8c#X\L	.	8e#X\L	.	.	.	.	.	.	4r	.	4r	.
8d\	.	8f#X\	.	.	.	.	.	.	.	.	.	.
8B\	.	8g\	.	.	.	.	.	.	8r	.	8r	.
!	!	!	!	!	!	!	!	!	!	!LO:DY:b:rj	!	!LO:DY:b:rj
8c#\J	.	8en\J)	.	.	.	.	.	.	8a/	f	8a/	f
*	*v	*v	*	*	*	*	*	*	*	*	*	*
*	*	*	*v	*v	*	*	*	*	*	*	*
!!LO:LB:g=original
=59||	=59||	=59||	=59||	=59||	=59||	=59||	=59||	=59||	=59||	=59||
*k[f#c#]	*k[f#c#]	*	*k[f#c#]	*	*k[f#c#]	*	*k[f#c#]	*	*k[f#c#]	*
*	*	*	*^	*	*	*	*	*	*	*
!	!	!	!LO:TX:t=P:problem:brak zakończenia łuku	!	!	!	!	!	!	!	!
4.DD/ 4.D	4.f#/ 4.a 4.ff#	.	8D/L)	4.D\)	.	8d/L)	f	4.f#^/ 4.a	.	4.a^/ 4.ff#	.
.	.	.	8A/	.	.	8A/	.	.	.	.	.
.	.	.	8d/	.	.	8d/	.	.	.	.	.
8EE/ 8E	8g/ 8ee	.	8A/J	8E\	.	8A/J	.	8g/	.	8ee\	.
2FF#/ 2F#	2a/	.	8F#/L	4F#\	.	8F#/L	.	4a/	.	8ee\L	.
.	.	.	8A/	.	.	8A/	.	.	.	8dd\	.
.	.	.	8F#/	4F#\	.	8F#/	.	4a/	.	8cc#\	.
.	.	.	8D/J	.	.	8D/J	.	.	.	8dd\J	.
=60	=60	=60	=60	=60	=60	=60	=60	=60	=60	=60	=60
*	*^	*	*	*	*	*	*	*	*	*	*
1GG 1G	2.g/ 2.b	2.ryy	.	8G/L	2G\	.	8G/L	.	4.b/	.	4.ee\	.
.	.	.	.	8B/	.	.	8B/	.	.	.	.	.
.	.	.	.	8G/	.	.	8G/	.	.	.	.	.
.	.	.	.	8E/J	.	.	8E/J	.	8e/	.	8b\	.
.	.	.	.	8G/L	2GG\	.	8G/L	.	8e/	.	8b\	.
.	.	.	.	8B/	.	.	8B/	.	8r	.	8r	.
.	4b/	8e\L	.	8e/	.	.	8e/	.	4b\	.	4b\	.
.	.	8f#\J	.	8f#/J	.	.	8f#/J	.	.	.	.	.
=61	=61	=61	=61	=61	=61	=61	=61	=61	=61	=61	=61	=61
4.EE/ 4.E	4.gg/	4.g\ 4.b	.	(<8e/L	4.E\	.	(8e/L	.	4.g^/	.	4.b^\ 4.gg	.
.	.	.	.	8B/	.	.	8B/	.	.	.	.	.
.	.	.	.	8e/	.	.	8e/	.	.	.	.	.
8FF#/ 8F#	8a/ 8ff#	8ryy	.	8B/J)	8F#\	.	8B/J)	.	8a/	.	8ff#\	.
2GG/ 2G	4b/	4b\	.	8B/	4G\	.	8B/	.	4b/	.	(8ff#^\L	.
.	.	.	.	4B/	.	.	4B/	.	.	.	8ee\J)	.
.	(>8ee/L	4b\	.	.	4GG\	.	.	.	4b/	.	(8ee^\L	.
.	8dd/J)	.	.	8B/	.	.	8B/	.	.	.	8dd\J)	.
=62	=62	=62	=62	=62	=62	=62	=62	=62	=62	=62	=62	=62
!	!	!	!	!	!	!	!LO:TX:t=P:problem:mixed beam	!	!	!	!	!
1AA 1A	2dd/	2e\	.	4.A/	[1AA	.	(8d\L	.	4a/	.	2dd\	.
.	.	.	.	.	.	.	8a\	.	.	.	.	.
.	.	.	.	.	.	.	8e\)	.	[4e/	.	.	.
.	.	.	.	8E/	.	.	8E/J	.	.	.	.	.
!	!	!	!	!	!	!	!LO:TX:t=P:problem:mixed beam	!	!	!	!	!
.	4cc#/	4e\	.	4A/	.	.	8A/L	.	(8e/L]	.	8cc#\	.
.	.	.	.	.	.	.	8a\J	.	8a/J)	.	8r	.
.	4r	4ryy	.	8d/L	.	.	8d\L	.	4a/	.	8dd\L	.
.	.	.	.	8c#/J	.	.	8c#\J	.	.	.	8ee\J	.
*	*v	*v	*	*	*	*	*	*	*	*	*	*
=63	=63	=63	=63	=63	=63	=63	=63	=63	=63	=63	=63
1AA^	(>[<2g/ 2ee	.	(<8B/L	1AA^]	.	1d^<	.	1g^>	.	2ee^\	.
.	.	.	8G/	.	.	.	.	.	.	.	.
.	.	.	8E/	.	.	.	.	.	.	.	.
.	.	.	8F#/J	.	.	.	.	.	.	.	.
.	4g/]) 4b	.	8G/L	.	.	.	.	.	.	8b\	.
.	.	.	8A/	.	.	.	.	.	.	8r	.
.	4r	.	8c#/	.	.	.	.	.	.	8cc#\L	.
.	.	.	8B/J)	.	.	.	.	.	.	8dd\J	.
!!LO:LB:g=original
=64	=64	=64	=64	=64	=64	=64	=64	=64	=64	=64	=64
1AA^	[2f#/ 2dd	.	(<8A/L	1AA^<	.	(4.d\	.	1f#^	.	2dd\	.
.	.	.	8d/	.	.	.	.	.	.	.	.
.	.	.	8A/	.	.	.	.	.	.	.	.
.	.	.	8f#/J	.	.	8e\	.	.	.	.	.
.	4f#/] 4a	.	8e/L	.	.	4e\	.	.	.	8a/	.
.	.	.	8A/	.	.	.	.	.	.	8r	.
!	!	!	!	!	!	!	!	!	!	!	!LO:HP:a:t=dimin.
.	4r	.	8d/)	.	.	8d\L)	.	.	.	8a/L	>
!	!	!	!	!	!	!	!	!	!LO:HP:a:t=dimin	!	!
.	.	.	(<16cn/L	.	.	(16cn\L	.	.	>	8b/J	.
.	.	.	16d/JJ)	.	.	16d\JJ)	.	.	.	.	.
=65	=65	=65	=65	=65	=65	=65	=65	=65	=65	=65	=65
!	!	!	!	!	!LO:HP:t=dimin	!	!	!	!	!	!
1D	1r	.	(<8e-X/L	1D	>	(8e-X^\L	.	1f#	.	2ccn\	.
.	.	.	8cn/	.	.	8cn\	.	.	.	.	.
!	!	!	!	!	!	!	!LO:HP:a:t=dimin	!	!	!	!
.	.	.	8A/	.	.	8A\	>	.	.	.	.
.	.	.	8d/J	.	.	8d\J	.	.	.	.	.
!	!	!	!	!	!	!LO:TX:t=P:problem:mixed beam	!	!	!	!	!
.	.	.	8c/L	.	.	8c\L	.	.	.	4.dd\	.
.	.	.	8A/	.	.	8A\	.	.	.	.	.
.	.	.	8D/	.	.	8D/	.	.	.	.	.
.	.	.	8d/J)	.	.	8d\J)	.	.	.	8a/	.
=66	=66	=66	=66	=66	=66	=66	=66	=66	=66	=66	=66
2GG/	1ryy	.	8A/L	2GG\	.	(8A/L	.	4.f#/	.	4.d\ 4.ccn	.
.	.	.	8D/J	.	.	8D/J	.	.	.	.	.
.	.	.	4G/	.	.	4G/)	.	.	.	.	.
.	.	.	.	.	.	.	.	8g/	.	8b-X\	.
2r	.	.	2r	2ryy	.	2r	.	8g/	.	8b-\	.
.	.	.	.	.	.	.	.	8r	.	8r	.
.	.	.	.	.	.	.	.	8r	.	8r	.
!	!	!	!	!	!	!	!	!	!	!	!LO:DY:rj
.	.	.	.	.	.	.	.	8b-X/	p	8dd\	p
*	*	*	*v	*v	*	*	*	*	*	*	*
*k[fncn]	*k[fncn]	*	*k[fncn]	*	*k[fncn]	*	*k[fncn]	*	*k[fncn]	*
=67	=67	=67	=67	=67	=67	=67	=67	=67	=67	=67
*ok[fncnb-]	*ok[fncnb-]	*	*ok[fncnb-]	*	*ok[fncnb-]	*	*ok[fncnb-]	*	*ok[fncnb-]	*
*k[b-]	*k[b-]	*	*k[b-]	*	*k[b-]	*	*k[b-]	*	*k[b-]	*
*	*	*	*^	*	*	*	*	*	*	*
*	*	*	*	*	*	*	*	*2\right	*	*	*
!!LO:TX:t=A==B pag 2.:podkreślone na czerwono
2r	(>[>2b-\ [>2dd	.	2r	1r	.	2r	.	([2b-\	.	([2dd\	.
!	!	!	!	!	!LO:DY:a:rj	!	!LO:DY:b:rj	!	!	!	!
4D\	8b-\L] 8dd]	.	2D/	.	f	4D^/	f	8b-\L]	.	8dd\L]	.
.	8a\ 8cc	.	.	.	.	.	.	8a\)	.	8cc\)	.
4d\	8g\ 8b-	.	.	.	.	4d^\	.	8g\	.	8b-\	.
.	8a\J 8cc	.	.	.	.	.	.	8a\J	.	8cc\J	.
=68	=68	=68	=68	=68	=68	=68	=68	=68	=68	=68	=68
4..B-\ 4..d	4..g/) 4..dd	.	4..B-/	1r	.	4..d\	.	4..g/	.	4..dd\	.
16A\ 16c	16d/	.	16A/	.	.	16c\	.	16d/	.	16d/	.
8.A\L 8.c	4d/	.	8.A/L	.	.	8.c\L	.	4d/	.	4d/	.
16G\Jk 16B-	.	.	16G/Jk	.	.	16B-\Jk	.	.	.	.	.
8.D\L 8.B-	4r	.	8.D/L	.	.	8.B-/L	.	4r	.	4r	.
16E\Jk 16A	.	.	16E/Jk	.	.	16A/Jk	.	.	.	.	.
!!LO:LB:g=original
=69	=69	=69	=69	=69	=69	=69	=69	=69	=69	=69	=69
8F\ 8A	1r	.	8F/	1rGG	.	8A/	.	4r	.	4r	.
8r	.	.	8r	.	.	8r	.	.	.	.	.
!	!	!	!	!	!LO:DY:rj	!	!LO:DY:b:rj	!	!LO:DY:b:rj	!	!LO:DY:b:rj
4r	.	.	8D/L	.	pp	8F'/L	pp	8d'/L	pp	8a'/L	pp
.	.	.	8C/J	.	.	8F'/J	.	8d'/J	.	8a'/J	.
2r	.	.	(<4BBn/	.	.	(4F/	.	(4d/	.	4.a/	.
.	.	.	4BB-X/)	.	.	4E/)	.	4d-X/)	.	.	.
.	.	.	.	.	.	.	.	.	.	8g/	.
=70	=70	=70	=70	=70	=70	=70	=70	=70	=70	=70	=70
1r	1r	.	4AA/	1r	.	(8F/L	.	8c/	.	8f/	.
.	.	.	.	.	.	8A/J)	.	8r	.	8r	.
.	.	.	8GG#X/L	.	.	8G#X'/L	.	8B-'/L 8dn	.	8f'/L	.
.	.	.	8GG#/J	.	.	8G#'/J	.	8B-'/J 8d	.	8f'/J	.
.	.	.	(4GGn/	.	.	(4Gn/	.	(4B-/ 4d	.	4.f/	.
.	.	.	4G/)	.	.	4B-X/)	.	4c#X/)	.	.	.
.	.	.	.	.	.	.	.	.	.	8e/	.
=71	=71	=71	=71	=71	=71	=71	=71	=71	=71	=71	=71
4r	4r	ff	4F/	1r	.	4A/	.	4d/	.	4d/	.
8r	8r	.	8r	.	.	8r	.	8r	.	8r	.
!	!	!	!	!	!LO:DY:b:rj	!	!LO:DY:b:rj	!	!LO:DY:b:rj	!	!LO:DY:b:rj
8D^/	8d^/	.	8D^</	.	f	8D^/	f	8d^/	f	8d^/	f
8F^/L	8f^/L	.	8F^</L	.	.	8F^/L	.	8f^/L	.	8f^/L	.
8A^/	8a^/	.	8A^</	.	.	8A^/	.	8A^/	.	8a^/	.
8d^/J	8dd^/	.	8d^</	.	.	8d^/	.	8d^/	.	8dd^/	.
8r	8f^/J 8ff	.	8f^</J	.	.	8f^/J	.	8f^/J	.	8ff^/J	.
=72	=72	=72	=72	=72	=72	=72	=72	=72	=72	=72	=72
*^	*^	*	*	*	*	*	*	*	*	*	*
!	!	!	!	!	!	!	!	!	!	!	!LO:DY:b:rj	!	!LO:DY:b:rj
2D/ 2F 2A 2d	1AA	2ff/	2f\ 2a 2dd	.	1AA	1AA	sff >	2d\ 2a	>	2f/ 2dd	ff >	2a\ 2ff	ff >
2E/ 2A 2c#X	.	2g/ 2a 2ee	2ryy	.	.	.	]]	2c#X\	]]	2g/ 2a	]]	2a\ 2ee	]]
*v	*v	*	*	*	*v	*v	*	*	*	*	*	*	*
*	*v	*v	*	*	*	*	*	*	*	*	*
=73	=73	=73	=73	=73	=73	=73	=73	=73	=73	=73
!	!	!	!	!LO:HP:t=dimin	!	!LO:HP:t=dimin	!	!LO:HP:t=dimin	!	!LO:HP:t=dimin
1D 1A 1d	2f/ 2dd	.	1DD 1D	>	2d\	>	2f/ 2a	>	2d/ 2dd	>
.	4a/	.	.	.	4d\	.	4f/	.	4a/	.
.	4f/	.	.	.	4A/	.	4d/	.	4f/	.
=74	=74	=74	=74	=74	=74	=74	=74	=74	=74	=74
*	*	*	*^	*	*	*	*	*	*	*
[1DD [1D	2d/	.	2D/	[1D	.	2D/	.	1d	.	2d/	.
.	2B-/ 2d 2g	.	2B-/	.	.	2B-/	.	.	.	([2g/	.
=75	=75	=75	=75	=75	=75	=75	=75	=75	=75	=75	=75
*	*^	*	*	*	*	*	*	*	*	*	*
1DD_ 1D_	(>2g/	1A 1d	.	[1A	1D_	.	[>1A	.	1d	.	2g/]	.
.	4f#X/	.	.	.	.	.	.	.	.	.	4f#X/	.
.	4e/)	.	.	.	.	.	.	.	.	.	4e/)	.
*	*v	*v	*	*	*	*	*	*	*	*	*	*
=76	=76	=76	=76	=76	=76	=76	=76	=76	=76	=76	=76
*^	*	*	*	*	*	*	*	*	*	*	*
*	*^	*	*	*	*	*	*	*	*	*	*	*
!LO:ACC:color=red	!	!	!	!	!	!	!	!	!	!	!	!	!
2A/ [2Bn	1DD_	2.D/]	1e	.	(2A/]	1D_	.	(>2A/]	.	2.Bn/	.	1e^	.
4G#X/ 4B]	.	.	.	.	4G#X/	.	.	4G#X/	.	.	.	.	.
4Gn/ 4c#X	.	4AA/	.	.	4Gn/)	.	.	4Gn/)	.	4c#X/	.	.	.
*	*v	*v	*	*	*	*	*	*	*	*	*	*	*
=77	=77	=77	=77	=77	=77	=77	=77	=77	=77	=77	=77	=77
1AA 1F#X	1DD]	1d;>	.	1F#X;>	1D]	.	1F#X;>	.	1A;> 1d	.	1d;>	.
*v	*v	*	*	*v	*v	*	*	*	*	*	*	*
==	==	==	==	==	==	==	==	==	==	==
*-	*-	*-	*-	*-	*-	*-	*-	*-	*-	*-
!!!system-decoration: (s1,s2,s3,s4){(s5,s6)}
!!!RDF**kern: < = below
!!!RDF**kern: > = above
!!!ENC: Tomasz Grochalski
!!!END: 2021-08-05
!!!ENC: Marta Chmielewska
!!!END: 2021-08-19